icons/bhi_calculator.svg

<svg xmlns="http://www.w3.org/2000/svg" viewBox="0 0 512 512"><defs><style>.cls-1{fill:#231f20;fill-rule:evenodd;}</style></defs><title>bhi_2</title><path class="cls-1" d="M332.8 409.6v51.2h51.2v-51.2h-51.2zm-102.4 0v51.2h51.2v-51.2h-51.2zm-102.4 0v51.2h51.2v-51.2h-51.2zm204.8-102.4v51.2h51.2v-51.2h-51.2zm-102.4 0v51.2h51.2v-51.2h-51.2zm-102.4 0v51.2h51.2v-51.2h-51.2zm204.8-102.4v51.2h51.2v-51.2h-51.2zm-102.4 0v51.2h51.2v-51.2h-51.2zm-102.4 0v51.2h51.2v-51.2h-51.2zm0-153.6v102.4h256v-102.4h-256zm256-51.2c28.28 0 64.33 13.67 64 64v384c1 49-35.72 64-64 64h-256c-28.28 0-62.33-21-64-64v-384c.33-47.67 35.72-64 64-64h256z"/></svg>

<svg id="Layer_1" data-name="Layer 1" xmlns="http://www.w3.org/2000/svg" viewBox="0 0 512 512"><defs><style>.cls-1{fill:#231f20;fill-rule:evenodd;}</style></defs><title>bhi_2</title><path class="cls-1" d="M332.8,409.6v51.2H384V409.6H332.8Zm-102.4,0v51.2h51.2V409.6H230.4Zm-102.4,0v51.2h51.2V409.6H128ZM332.8,307.2v51.2H384V307.2H332.8Zm-102.4,0v51.2h51.2V307.2H230.4Zm-102.4,0v51.2h51.2V307.2H128ZM332.8,204.8V256H384V204.8H332.8Zm-102.4,0V256h51.2V204.8H230.4Zm-102.4,0V256h51.2V204.8H128Zm0-153.6V153.6H384V51.2H128ZM384,0c28.28,0,64.33,13.67,64,64V448c1,49-35.72,64-64,64H128c-28.28,0-62.33-21-64-64V64C64.33,16.33,99.72,0,128,0H384Z"/></svg>
